frontend/public/svg/food/pizza.svg

<svg width="164" height="161" viewBox="0 0 164 161" fill="none" xmlns="http://www.w3.org/2000/svg">
<g clip-path="url(#clip0)">
<path d="M79.8535 159.969C65.4943 160.293 52.2874 158.487 40.1905 152.101C20.6815 141.796 8.82533 125.407 3.68359 104.122C1.70473 95.9272 0.589068 87.5471 1.03997 79.0961C1.716 66.4465 4.33275 54.2543 10.1361 42.8354C16.7172 29.6441 27.5981 19.0901 40.984 12.9143C52.1422 7.64313 63.9271 3.81635 76.0533 1.5268C98.5775 -2.76368 117.689 4.03338 134.19 19.206C148.921 32.7508 158.432 49.2832 161.896 69.1316C164.551 84.3422 162.561 99.094 157.126 113.377C147.716 138.111 129.49 152.469 103.823 157.746C95.9351 159.335 87.8995 160.08 79.8535 159.969ZM26.9371 33.3178C16.4153 42.1705 6.72858 72.7979 10.3056 85.6424L73.7075 79.4761C59.5473 62.7054 43.8929 47.2559 26.9371 33.3178ZM135.911 131.309C149.333 119.018 155.084 91.0027 152.806 80.7317C142.683 81.707 132.544 82.8589 122.376 83.615C112.152 84.3757 101.899 84.7432 91.1346 85.3109C105.812 101.279 120.493 116.525 135.908 131.306L135.911 131.309ZM84.5351 74.7327L130.498 30.1452C119.167 16.2426 90.6968 6.14813 79.6704 11.9646C81.2863 32.842 82.9015 53.6834 84.5325 74.7262L84.5351 74.7327ZM27.4018 131.703L72.7014 85.9889C51.6181 88.8184 30.9225 88.1155 10.6488 91.6748C12.0258 106.984 17.1965 120.304 27.3967 131.699L27.4018 131.703ZM75.2151 151.432C75.8059 131.489 76.3893 111.748 76.9964 91.2226C60.8816 105.881 46.3003 120.898 31.5924 135.783C41.3764 146.289 60.1512 152.04 75.2132 151.428L75.2151 151.432ZM83.0033 151.6C100.147 150.983 116.072 148.413 129.298 137.54L84.2667 91.724C83.6701 111.727 82.9028 131.46 83.0006 151.596L83.0033 151.6ZM31.651 27.8427C39.7319 34.6935 47.6362 40.9642 55.0318 47.7861C62.4727 54.6495 69.4053 62.0615 76.5639 69.2333L77.2649 68.9445C76.3874 49.9665 75.5098 30.9878 74.6448 12.2756C71.8724 12.2756 69.4052 12.1444 66.9578 12.3091C64.0609 12.5014 60.9592 12.3748 58.3391 13.3948C52.4013 15.7343 46.5993 18.405 40.9605 21.3942C37.6552 23.125 34.7647 25.6439 31.6484 27.8386L31.651 27.8427ZM91.0027 77.4014C111.795 77.3909 132.072 75.2552 152.337 72.2656C150.368 58.0119 144.347 46.0239 135.247 35.0151L91.0027 77.4014Z" fill="black"/>
<path d="M50.7734 72.9806C50.1556 73.0022 49.54 72.8966 48.9652 72.6688C48.3904 72.4411 47.8687 72.0971 47.4334 71.658C46.998 71.2196 46.6583 70.6952 46.4354 70.1189C46.2125 69.542 46.1113 68.9257 46.1383 68.3081C46.1534 66.0155 49.0446 63.0716 51.3051 63.0473C54.1772 63.0151 56.1317 64.8667 56.053 67.5435C56.0573 68.9598 55.5077 70.3211 54.5211 71.3371C53.5344 72.3538 52.1892 72.9432 50.7734 72.9806Z" fill="black"/>
<path d="M28.2908 58.6027C27.6544 58.648 27.0147 58.5948 26.3946 58.4451C23.6137 57.2788 21.3158 52.8368 21.8002 49.8019C21.9754 48.696 22.3587 47.804 23.6477 47.907C24.8436 48.0022 24.9251 48.8614 24.8194 49.861C24.591 52.0269 25.7382 53.6769 26.9551 55.2987C27.5957 56.152 28.1807 57.0504 28.793 57.9279L28.2908 58.6027Z" fill="black"/>
<path d="M37.3 69.8257C37.2344 70.3508 37.3314 70.912 37.0965 71.1719C35.0894 73.3883 33.0534 75.5805 30.944 77.6998C30.7207 77.9164 30.4505 78.0779 30.1547 78.173C29.8587 78.2682 29.5448 78.2938 29.2374 78.2479C28.9986 78.0588 28.8074 77.816 28.6791 77.5397C28.551 77.2634 28.4893 76.9608 28.499 76.6562C28.606 74.0624 33.3462 69.5264 35.9755 69.4365C36.4336 69.5008 36.8799 69.6321 37.3 69.8257Z" fill="black"/>
<path d="M136.59 90.822C139.824 90.7865 141.386 92.1707 141.361 95.0494C141.337 97.8585 139.562 99.7048 136.825 99.7665C135.476 99.7692 134.182 99.2355 133.227 98.2845C132.272 97.3328 131.733 96.0412 131.729 94.6924C131.738 92.3296 133.593 90.8548 136.59 90.822Z" fill="black"/>
<path d="M128.983 113.371C124.848 113.06 121.233 108.841 121.721 105.351C121.814 104.899 122.007 104.475 122.287 104.109C122.566 103.742 122.925 103.444 123.337 103.235C124.579 102.805 125.028 103.914 125.158 105.002C125.439 107.35 126.808 108.809 128.914 109.695C129.119 109.78 129.386 109.846 129.496 110.008C129.965 110.702 130.905 111.675 130.708 112.088C130.377 112.791 129.314 113.15 128.983 113.371Z" fill="black"/>
<path d="M112.868 90.3862C114.607 91.118 116.116 91.5525 117.37 92.3749C117.664 92.6631 117.878 93.0214 117.992 93.4165C118.106 93.811 118.116 94.2291 118.023 94.6288C117.788 95.144 116.464 95.6231 115.849 95.4217C113.741 94.7305 111.799 94.386 109.736 95.6126C109.249 95.9027 107.797 95.6166 107.702 95.3147C107.477 94.5835 107.49 93.2492 107.945 92.9374C109.525 91.9739 111.17 91.1213 112.868 90.3862Z" fill="black"/>
<path d="M99.3548 50.3433C99.5478 52.6976 98.3933 54.5144 96.3587 55.77C95.468 56.3566 94.4271 56.6758 93.3605 56.6899C92.294 56.7039 91.2451 56.4122 90.3387 55.8492C88.0868 54.5641 86.761 50.2192 87.7541 47.546C88.2588 46.2323 89.2203 45.1448 90.4621 44.4834C91.7039 43.822 93.1433 43.6311 94.5143 43.9459C97.5703 44.5103 99.3319 46.7879 99.3548 50.3433ZM90.8933 49.9121C91.5411 52.882 92.2716 53.8114 93.3959 53.1314C93.7576 52.8605 94.0483 52.5057 94.2426 52.0977C94.4369 51.6897 94.5294 51.2405 94.5117 50.7889C94.0201 48.665 92.4823 49.4277 90.8933 49.9121Z" fill="black"/>
<path d="M87.0702 31.2961C87.21 28.105 88.86 26.0888 91.7879 25.0609C93.7491 24.3334 95.6518 23.4557 97.4777 22.4356C98.7018 21.7792 99.8405 20.9049 101.08 22.1855C101.928 23.0603 101.647 25.0446 100.223 26.0357C98.6939 27.1244 96.9776 27.9228 95.1595 28.3912C92.9601 28.9163 91.5064 29.7695 91.2543 32.171C91.106 33.5789 90.5527 35.0799 88.8797 34.8121C87.0774 34.5187 87.059 32.7978 87.0702 31.2961Z" fill="black"/>
<path d="M114.969 35.9235C112.661 35.9655 110.717 34.8024 110.183 33.0611C109.578 31.0862 110.332 29.3824 112.425 28.0074C112.611 27.8853 112.808 27.7803 113.002 27.6733C115.102 26.5142 117.935 26.5444 119.308 27.7481C120.817 29.0739 120.587 30.7718 120.116 32.3923C119.512 34.469 117.316 35.8808 114.969 35.9235Z" fill="black"/>
<path d="M50.9821 92.9041C53.4762 92.9251 55.0914 94.4898 54.9752 96.7732C54.8683 98.8892 52.7182 100.635 50.3068 100.566C47.8639 100.496 46.5914 99.0349 46.6793 96.4037C46.7548 94.1669 48.3351 92.8824 50.9821 92.9041Z" fill="black"/>
<path d="M37.5707 103.077C33.871 106.177 28.4087 104.481 27.5029 100.296C27.4838 99.9927 27.5312 99.6882 27.6417 99.4046C27.7522 99.1217 27.9233 98.8658 28.1429 98.6551C28.3766 98.554 28.6319 98.5133 28.8855 98.5376C29.139 98.5612 29.3823 98.6492 29.5928 98.7923C31.0367 101.429 33.4351 101.884 36.1064 101.954C36.5252 101.965 36.9275 102.564 37.5707 103.077Z" fill="black"/>
<path d="M35.1339 113.244C33.6244 116.329 32.4281 118.944 31.0354 121.448C30.7822 121.702 30.468 121.886 30.1233 121.983C29.7786 122.081 29.4147 122.088 29.0664 122.005C28.7628 121.804 28.5104 121.535 28.3296 121.219C28.1488 120.903 28.0444 120.549 28.0251 120.186C28.0343 117.474 31.4013 113.975 35.1339 113.244Z" fill="black"/>
<path d="M67.763 133.446C68.4076 133.447 69.0455 133.577 69.6389 133.829C70.2322 134.082 70.7684 134.45 71.2167 134.914C71.665 135.377 72.0161 135.926 72.2485 136.527C72.4808 137.128 72.5898 137.771 72.5688 138.415C72.5051 139.831 71.8855 141.164 70.8446 142.126C69.8036 143.088 68.4253 143.601 67.0089 143.554C64.171 143.554 61.7467 141.478 61.6824 138.993C61.6096 136.24 64.7129 133.409 67.763 133.446Z" fill="black"/>
<path d="M67.5109 108.891C70.2747 108.956 71.8316 110.622 71.7049 113.385C71.5815 116.082 69.1268 118.597 66.5822 118.636C65.9967 118.642 65.4161 118.529 64.8752 118.305C64.3343 118.082 63.8442 117.751 63.4343 117.333C63.0244 116.915 62.703 116.418 62.4895 115.874C62.276 115.328 62.1747 114.745 62.1918 114.161C62.1915 113.464 62.3294 112.775 62.5972 112.132C62.865 111.489 63.2576 110.906 63.7522 110.416C64.2468 109.926 64.8334 109.539 65.4786 109.277C66.124 109.016 66.8145 108.884 67.5109 108.891Z" fill="black"/>
<path d="M47.3125 138.238C47.2659 134.977 50.4879 129.911 52.9176 128.988C53.2618 128.848 53.6323 128.783 54.0037 128.799C54.3752 128.814 54.7387 128.91 55.0696 129.08C55.2854 129.371 55.4235 129.712 55.4706 130.072C55.5176 130.431 55.4723 130.797 55.3389 131.133C53.6481 133.975 51.8162 136.734 49.9568 139.469C49.712 139.828 48.7183 140.168 48.5857 140.029C48.1033 139.476 47.6769 138.876 47.3125 138.238Z" fill="black"/>
<path d="M101.401 135.093C101.471 131.497 103.85 129.121 107.223 129.278C110.305 129.422 112.462 131.868 112.379 135.119C112.286 138.745 109.602 141.663 106.472 141.543C103.091 141.416 101.321 139.163 101.401 135.093Z" fill="black"/>
<path d="M87.1156 117.975C87.1523 114.747 88.7118 113.067 91.6863 113.052C94.9312 113.035 96.8911 114.866 96.828 117.857C96.7696 120.624 94.1889 122.798 91.1008 122.68C88.5168 122.582 87.0821 120.886 87.1156 117.975Z" fill="black"/>
<path d="M95.3794 128.765C95.8277 127.802 96.3508 126.876 96.9421 125.994C98.4609 124.034 99.8898 122.101 100.216 119.496C100.295 118.865 101.272 118.072 101.974 117.892C102.425 117.777 103.451 118.525 103.662 119.093C104.647 121.736 103.86 124.164 102.249 126.323C100.726 128.366 98.9512 130.057 96.0561 129.342C95.8717 129.296 95.7305 129.072 95.3794 128.765Z" fill="black"/>
<path d="M64.2224 44.8778C64.7816 43.8565 65.4693 41.9485 66.7055 40.5065C68.1462 38.823 71.292 39.7792 72.6021 42.0324C74.4044 45.1323 72.077 49.8745 68.5328 50.3287C66.4502 50.5958 64.2585 48.2697 64.2224 44.8778Z" fill="black"/>
<path d="M50.9096 31.6928C47.9298 31.6823 46.0612 29.8092 46.1124 26.8832C46.1504 24.7232 48.3832 22.8638 50.9692 22.8415C53.7639 22.8179 56.189 25.031 56.0972 27.5205C56.0053 29.9023 53.7686 31.7026 50.9096 31.6928Z" fill="black"/>
<path d="M63.1079 30.1062L69.7216 28.6025C70.6621 30.5788 70.3648 31.3776 68.2021 32.4015C65.8391 33.5205 64.248 32.828 63.1079 30.1062Z" fill="black"/>
<path d="M133.64 63.5619C130.805 63.6026 129.123 61.9422 129.028 59.0096C128.92 55.6623 131.698 52.4974 134.812 52.4213C137.976 52.3445 139.97 54.19 140.022 57.244C140.083 60.8689 137.418 63.508 133.64 63.5619Z" fill="black"/>
<path d="M119.033 71.6605C115.043 71.5371 112.709 70.0689 111.353 67.1751C111.011 66.4872 110.863 65.7183 110.927 64.9523C110.99 64.6438 111.125 64.3545 111.321 64.1077C111.516 63.8608 111.767 63.6634 112.053 63.5313C112.361 63.5178 112.668 63.5733 112.952 63.6936C113.236 63.814 113.489 63.9963 113.694 64.2271C114.198 64.779 114.354 65.6362 114.816 66.2431C115.576 67.2407 116.515 68.1287 117.912 67.4547C119.132 66.864 120.326 66.5417 121.128 67.8911C121.466 68.4589 121.61 69.6173 121.269 70.0157C120.608 70.6707 119.854 71.2247 119.033 71.6605Z" fill="black"/>
</g>
<defs>
<clipPath id="clip0">
<rect width="162.772" height="160.146" fill="white" transform="translate(0.356689 0.119629)"/>
</clipPath>
</defs>
</svg>

<svg xmlns="http://www.w3.org/2000/svg" width="164" height="161" fill="none" viewBox="0 0 164 161"><g fill="#000" clip-path="url(#a)"><path d="M79.854 159.969c-14.36.324-27.567-1.482-39.663-7.868-19.51-10.305-31.366-26.694-36.507-47.979C1.704 95.927.589 87.547 1.04 79.096c.676-12.65 3.293-24.842 9.096-36.26a64.82 64.82 0 0 1 30.848-29.922 145.2 145.2 0 0 1 35.07-11.387c22.524-4.29 41.635 2.506 58.136 17.679 14.731 13.545 24.242 30.077 27.706 49.926 2.655 15.21.665 29.962-4.77 44.245-9.41 24.734-27.636 39.092-53.303 44.369a113.5 113.5 0 0 1-23.97 2.223M26.936 33.318C16.415 42.17 6.73 72.798 10.306 85.642l63.402-6.166a362.4 362.4 0 0 0-46.77-46.158m108.974 97.991c13.422-12.291 19.173-40.306 16.895-50.577-10.123.975-20.262 2.127-30.43 2.883-10.224.76-20.477 1.128-31.241 1.696 14.677 15.968 29.358 31.214 44.773 45.995zM84.535 74.733l45.963-44.588C119.167 16.243 90.697 6.148 79.67 11.965c1.616 20.877 3.231 41.718 4.862 62.761zm-57.133 56.97 45.3-45.714c-21.084 2.83-41.78 2.126-62.053 5.686 1.377 15.309 6.548 28.629 16.748 40.024zm47.813 19.729 1.781-60.21c-16.114 14.659-30.696 29.676-45.404 44.561 9.784 10.506 28.56 16.257 43.621 15.645zm7.788.168c17.144-.617 33.069-3.187 46.295-14.06L84.267 91.724c-.597 20.003-1.364 39.736-1.266 59.872zM31.651 27.843c8.08 6.85 15.985 13.121 23.38 19.943 7.442 6.864 14.374 14.276 21.533 21.447l.7-.288-2.62-56.67c-2.772 0-5.239-.13-7.686.034-2.897.192-5.999.066-8.619 1.086a171 171 0 0 0-17.378 8c-3.306 1.73-6.196 4.249-9.313 6.444zM91.003 77.4c20.792-.01 41.069-2.146 61.334-5.135-1.969-14.254-7.99-26.242-17.09-37.25z"/><path d="M50.773 72.98a4.48 4.48 0 0 1-4.635-4.672c.015-2.293 2.907-5.236 5.167-5.26 2.872-.033 4.827 1.819 4.748 4.495a5.42 5.42 0 0 1-5.28 5.438M28.29 58.603a6.2 6.2 0 0 1-1.895-.158c-2.781-1.166-5.08-5.608-4.595-8.643.175-1.106.559-1.998 1.848-1.895 1.196.095 1.277.954 1.171 1.954-.228 2.166.92 3.816 2.136 5.438.64.853 1.226 1.751 1.838 2.629zm9.01 11.223c-.066.525.031 1.086-.203 1.346-2.008 2.216-4.044 4.409-6.153 6.528a2.02 2.02 0 0 1-1.707.548 1.95 1.95 0 0 1-.738-1.592c.107-2.594 4.847-7.13 7.476-7.22.459.065.905.196 1.325.39m99.29 20.996c3.234-.035 4.796 1.349 4.771 4.227-.024 2.81-1.799 4.656-4.536 4.717a5.085 5.085 0 0 1-5.096-5.074c.009-2.362 1.864-3.837 4.861-3.87m-7.607 22.549c-4.135-.311-7.75-4.53-7.262-8.02a3.06 3.06 0 0 1 1.616-2.116c1.242-.43 1.691.679 1.821 1.767.281 2.348 1.65 3.807 3.756 4.693.205.085.472.151.582.313.469.694 1.409 1.667 1.212 2.08-.331.703-1.394 1.062-1.725 1.283m-16.115-22.985c1.739.732 3.248 1.166 4.502 1.989a2.38 2.38 0 0 1 .653 2.254c-.235.515-1.559.994-2.174.793-2.108-.691-4.05-1.036-6.113.19-.487.29-1.939.005-2.034-.297-.225-.731-.212-2.066.243-2.378a40 40 0 0 1 4.923-2.55M99.355 50.343c.193 2.355-.962 4.171-2.996 5.427a5.59 5.59 0 0 1-6.02.08c-2.252-1.286-3.578-5.63-2.585-8.304a5.844 5.844 0 0 1 6.76-3.6c3.056.564 4.818 2.842 4.84 6.397m-8.462-.43c.648 2.969 1.379 3.898 2.503 3.218a2.79 2.79 0 0 0 1.116-2.342c-.492-2.124-2.03-1.361-3.619-.877M87.07 31.296c.14-3.191 1.79-5.207 4.718-6.235a41 41 0 0 0 5.69-2.625c1.224-.657 2.363-1.531 3.602-.25.848.874.567 2.859-.857 3.85a15.3 15.3 0 0 1-5.064 2.355c-2.199.525-3.653 1.379-3.905 3.78-.148 1.408-.701 2.909-2.374 2.641-1.803-.293-1.821-2.014-1.81-3.516m27.899 4.628c-2.308.041-4.252-1.122-4.786-2.863-.605-1.975.149-3.679 2.242-5.054.186-.122.383-.227.577-.334 2.1-1.159 4.933-1.129 6.306.075 1.509 1.326 1.279 3.024.808 4.644-.604 2.077-2.8 3.489-5.147 3.531M50.982 92.904c2.494.021 4.11 1.586 3.993 3.87-.107 2.115-2.257 3.861-4.668 3.792-2.443-.07-3.716-1.531-3.628-4.162.076-2.237 1.656-3.522 4.303-3.5M37.57 103.077c-3.699 3.1-9.161 1.404-10.067-2.781a2.1 2.1 0 0 1 .64-1.64 1.51 1.51 0 0 1 1.45.136c1.444 2.637 3.842 3.092 6.513 3.162.42.011.822.61 1.465 1.123m-2.437 10.167c-1.51 3.085-2.706 5.7-4.099 8.204a2.09 2.09 0 0 1-1.969.557 2.33 2.33 0 0 1-1.04-1.819c.008-2.712 3.375-6.211 7.108-6.942m32.629 20.202a4.82 4.82 0 0 1 4.486 3.081 4.8 4.8 0 0 1 .32 1.888 5.38 5.38 0 0 1-5.56 5.139c-2.838 0-5.262-2.076-5.327-4.561-.072-2.753 3.03-5.584 6.081-5.547m-.253-24.555c2.765.065 4.322 1.731 4.195 4.494-.123 2.697-2.578 5.212-5.123 5.251a4.35 4.35 0 0 1-3.148-1.303 4.36 4.36 0 0 1-1.242-3.172 5.27 5.27 0 0 1 5.319-5.27m-20.198 29.347c-.047-3.261 3.175-8.327 5.605-9.25a2.6 2.6 0 0 1 2.152.092 2.13 2.13 0 0 1 .269 2.053c-1.69 2.842-3.523 5.601-5.382 8.336-.245.359-1.239.699-1.371.56a11 11 0 0 1-1.273-1.791m54.088-3.145c.07-3.596 2.449-5.972 5.822-5.815 3.082.144 5.239 2.59 5.156 5.841-.093 3.626-2.777 6.544-5.907 6.424-3.381-.127-5.151-2.38-5.071-6.45m-14.285-17.118c.036-3.228 1.596-4.908 4.57-4.923 3.245-.017 5.205 1.814 5.142 4.805-.058 2.767-2.64 4.941-5.727 4.823-2.584-.098-4.019-1.794-3.985-4.705m8.264 10.79q.673-1.446 1.562-2.771c1.519-1.96 2.948-3.893 3.274-6.498.079-.631 1.056-1.424 1.758-1.604.451-.115 1.477.633 1.688 1.201.985 2.643.198 5.071-1.413 7.23-1.523 2.043-3.298 3.734-6.193 3.019-.184-.046-.325-.27-.677-.577M64.222 44.878c.56-1.022 1.247-2.93 2.484-4.371 1.44-1.684 4.586-.728 5.896 1.525 1.802 3.1-.525 7.843-4.07 8.297-2.082.267-4.273-2.06-4.31-5.451M50.91 31.693c-2.98-.01-4.849-1.884-4.798-4.81.038-2.16 2.271-4.02 4.857-4.041 2.795-.024 5.22 2.189 5.128 4.679-.092 2.381-2.328 4.182-5.187 4.172m12.198-1.587 6.614-1.504c.94 1.977.643 2.776-1.52 3.8-2.363 1.118-3.954.426-5.094-2.296m70.532 33.456c-2.835.04-4.517-1.62-4.612-4.552-.108-3.348 2.67-6.513 5.784-6.589 3.164-.077 5.158 1.769 5.21 4.823.061 3.625-2.604 6.264-6.382 6.318m-14.607 8.098c-3.99-.123-6.324-1.591-7.68-4.485a4.2 4.2 0 0 1-.426-2.223 2 2 0 0 1 1.126-1.42 2.07 2.07 0 0 1 1.641.695c.504.552.66 1.41 1.122 2.016.76.998 1.699 1.886 3.096 1.212 1.22-.591 2.414-.913 3.216.436.338.568.482 1.726.141 2.125a9.5 9.5 0 0 1-2.236 1.644"/></g><defs><clipPath id="a"><path fill="#fff" d="M.357.12h162.772v160.146H.357z"/></clipPath></defs></svg>
